Newaita-dark/apps/64/sublime-merge.svg

<svg height="64" viewBox="0 0 64 64" width="64" xmlns="http://www.w3.org/2000/svg" xmlns:xlink="http://www.w3.org/1999/xlink"><linearGradient id="a" gradientUnits="userSpaceOnUse" x1="31.75304" x2="31.75304" y1="56.067872" y2="58.71396000006"><stop offset="0" stop-opacity=".27451"/><stop offset="1" stop-opacity="0"/></linearGradient><linearGradient id="b"><stop offset="0" stop-opacity=".313726"/><stop offset=".222222" stop-opacity=".27451"/><stop offset="1" stop-opacity="0"/></linearGradient><radialGradient id="c" cx="450.908936" cy="189.579361" gradientTransform="matrix(.00000035 -.156265 -.281277 -.0000002 104.261296 127.190665)" gradientUnits="userSpaceOnUse" r="21.166656" xlink:href="#b"/><radialGradient id="d" cx="450.908936" cy="189.579361" gradientTransform="matrix(-.00000035 .156265 .281277 .0000002 -40.755227 -15.054958)" gradientUnits="userSpaceOnUse" r="21.166656" xlink:href="#b"/><radialGradient id="e" cx="450.908936" cy="189.579361" gradientTransform="matrix(-.00000035 -.156265 .281277 -.0000002 -40.755227 127.190665)" gradientUnits="userSpaceOnUse" r="21.166656" xlink:href="#b"/><radialGradient id="f" cx="450.908936" cy="189.579361" gradientTransform="matrix(.00000035 .156265 -.281277 .0000002 104.261293 -15.054959)" gradientUnits="userSpaceOnUse" r="21.166656" xlink:href="#b"/><linearGradient id="g" gradientUnits="userSpaceOnUse" x1="21.16869799994" x2="21.16869799994" y1="56.067868" y2="5.79221000013"><stop offset="0" stop-color="#424242"/><stop offset="1" stop-color="#616161"/></linearGradient><linearGradient id="h" gradientUnits="userSpaceOnUse" x1="31.75304612482" x2="31.753048" y1="56.067868" y2="5.79221000013"><stop offset="0" stop-color="#26c6da"/><stop offset="1" stop-color="#4dd0e1"/></linearGradient><linearGradient id="i" gradientTransform="matrix(.125012 0 0 -.125012 0 34.984622)" gradientUnits="userSpaceOnUse" x1="253.999985" x2="254" y1="233.5" y2="-168.666656"><stop offset="0" stop-color="#b2ebf2"/><stop offset="1" stop-color="#80deea"/></linearGradient><path d="m11.90625 55.871094h39.691406v2.941406h-39.691406zm0 0" fill="url(#a)"/><path d="m51.597656 56.066406h5.292969v-2.644531h-5.292969zm0 0" fill="url(#c)"/><path d="m11.90625 56.066406h-5.292969v2.648438h5.292969zm0 0" fill="url(#d)"/><path d="m11.90625 56.066406h-5.292969v-2.644531h5.292969zm0 0" fill="url(#e)"/><path d="m51.597656 56.066406h5.292969v2.648438h-5.292969zm0 0" fill="url(#f)"/><path d="m9.261719 5.792969h44.984375c1.460937 0 2.644531 1.183593 2.644531 2.644531v44.984375c0 1.460937-1.183594 2.644531-2.644531 2.644531h-44.984375c-1.460938 0-2.648438-1.183594-2.648438-2.644531v-44.984375c0-1.460938 1.1875-2.644531 2.648438-2.644531zm0 0" fill="url(#g)"/><path d="m17.269531 24.726562c-.179687.542969.007813 1.15625.496094 1.5l7.902344 5.53125 5.328125-3.730468c.222656-.15625.484375-.238282.757812-.238282h1.078125l-1.167969-.824218c-.242187.015625-.472656.097656-.667968.234375l-5.328125 3.730469-7.902344-5.53125c-.242187-.171876-.410156-.410157-.496094-.671876zm0 0" fill-opacity=".235294"/><path d="m9.261719 5.792969c-1.464844 0-2.648438 1.179687-2.648438 2.644531v.332031c0-1.464843 1.183594-2.648437 2.648438-2.648437h44.984375c1.464844 0 2.644531 1.183594 2.644531 2.648437v-.332031c0-1.464844-1.179687-2.644531-2.644531-2.644531zm0 0" fill="#e6e6e6" fill-opacity=".392157"/><path d="m9.261719 56.066406c-1.464844 0-2.648438-1.179687-2.648438-2.644531v-.332031c0 1.46875 1.183594 2.648437 2.648438 2.648437h44.984375c1.464844 0 2.644531-1.179687 2.644531-2.648437v.332031c0 1.464844-1.179687 2.644531-2.644531 2.644531zm0 0" fill-opacity=".196078"/><path d="m74.086675-168.660675h359.840637c11.686384 0 21.15423 9.467846 21.15423 21.15423v359.840637c0 11.686384-9.467846 21.154229-21.15423 21.154229h-359.840637c-11.686384 0-21.185477-9.467845-21.185477-21.154229v-359.840637c0-11.686384 9.499093-21.15423 21.185477-21.15423zm0 0" fill="none" stroke="#212121" stroke-linecap="round" stroke-width="3" transform="matrix(.125012 0 0 .125012 0 26.877566)"/><path d="m31.753906 26.964844c-.273437 0-.535156.082031-.757812.238281l-13.230469 9.261719c-.589844.410156-.738281 1.214844-.34375 1.8125l2.648437 3.96875c.410157.621094 1.253907.777344 1.859376.347656l10.902343-7.695312h9.503907c.351562 0 .6875-.140626.933593-.386719l2.648438-2.648438c.515625-.515625.515625-1.351562 0-1.867187l-2.648438-2.644532c-.246093-.25-.582031-.386718-.933593-.386718zm0 0" fill="url(#h)"/><path d="m21.183594 19.027344c-.429688-.003906-.855469.199218-1.113282.585937l-2.648437 3.972657c-.394531.59375-.246094 1.402343.34375 1.8125l7.902344 5.53125 5.328125-3.726563c.222656-.15625.484375-.238281.757812-.238281h1.078125l-10.902343-7.695313c-.226563-.160156-.488282-.238281-.746094-.242187zm0 0" fill="url(#i)"/><path d="m31.753906 26.964844c-.273437 0-.535156.082031-.757812.238281l-13.230469 9.261719c-.464844.324218-.65625.890625-.523437 1.410156.078124-.292969.253906-.5625.523437-.753906l13.230469-9.261719c.222656-.152344.484375-.238281.757812-.238281h10.582032c.351562 0 .6875.140625.933593.386718l2.648438 2.648438c.171875.171875.289062.382812.34375.605469.113281-.4375 0-.921875-.34375-1.265625l-2.648438-2.644532c-.246093-.25-.582031-.386718-.933593-.386718zm0 0" fill="#fff" fill-opacity=".392157"/><path d="m46.207031 31.429688c-.0625.15625-.160156.308593-.289062.4375l-2.648438 2.644531c-.246093.25-.582031.386719-.933593.386719h-9.503907l-10.902343 7.699218c-.605469.425782-1.449219.269532-1.859376-.347656l-2.648437-3.96875c-.050781-.078125-.089844-.15625-.125-.238281-.15625.390625-.125.851562.125 1.230469l2.648437 3.96875c.410157.617187 1.253907.773437 1.859376.347656l10.902343-7.699219h9.503907c.351562 0 .6875-.136719.933593-.386719l2.648438-2.644531c.386719-.386719.484375-.953125.289062-1.429687zm0 0" fill-opacity=".235294"/><path d="m21.183594 19.027344c-.429688-.003906-.855469.199218-1.113282.585937l-2.648437 3.972657c-.214844.324218-.269531.707031-.179687 1.058593.039062-.140625.097656-.277343.179687-.402343l2.648437-3.96875c.257813-.386719.683594-.59375 1.113282-.589844.257812.003906.519531.082031.746094.242187l9.96875 7.039063h.933593l-10.902343-7.695313c-.226563-.160156-.488282-.238281-.746094-.242187zm0 0" fill="#fff" fill-opacity=".392157"/><g fill="none" stroke="#212121" stroke-linecap="round" stroke-linejoin="round"><path d="m254.006994.698152c-2.187292 0-4.280842.656187-6.061922 1.906068l-105.833643 74.086675c-4.718299 3.280937-5.905686 9.717822-2.749737 14.498615l21.185477 31.746969c3.280936 4.968275 10.030292 6.218156 14.873579 2.780984l87.210422-61.556622h76.02399c2.812231 0 5.499475-1.124892 7.468037-3.093454l21.185477-21.185477c4.124606-4.124606 4.124606-10.811468 0-14.936074l-21.185477-21.15423c-1.968562-1.999809-4.655806-3.093454-7.468037-3.093454zm0 0" stroke-width="3" transform="matrix(.125012 0 0 .125012 0 26.877566)"/><path d="m640.450685 575.260056c-12.990886-.118099-25.863674 6.023047-33.658205 17.714845l-80.071098 120.106647c-11.927996 17.951043-7.440235 42.397528 10.392709 54.797919l238.914205 167.228134 161.086988-112.666412c6.731641-4.723959 14.644271-7.204037 22.911199-7.204037h32.595314l-329.61421-232.65496c-6.84974-4.842057-14.762371-7.204037-22.556902-7.322136zm0 0" stroke-width="11.338583" transform="scale(.0330761)"/></g></svg>

<?xml version="1.0" encoding="UTF-8"?>
<svg xmlns="http://www.w3.org/2000/svg" xmlns:xlink="http://www.w3.org/1999/xlink" width="64px" height="64px" viewBox="0 0 64 64" version="1.1">
<defs>
<linearGradient id="linear0" gradientUnits="userSpaceOnUse" x1="254" y1="233.5" x2="254" y2="254.666672" gradientTransform="matrix(0.125012,0,0,0.125012,-0.00000763012,26.87757)">
<stop offset="0" style="stop-color:rgb(0%,0%,0%);stop-opacity:0.27451;"/>
<stop offset="1" style="stop-color:rgb(0%,0%,0%);stop-opacity:0;"/>
</linearGradient>
<radialGradient id="radial0" gradientUnits="userSpaceOnUse" cx="450.908936" cy="189.579361" fx="450.908936" fy="189.579361" r="21.166656" gradientTransform="matrix(0.000000348341,-0.156265,-0.281277,-0.000000203077,104.261296,127.190665)">
<stop offset="0" style="stop-color:rgb(0%,0%,0%);stop-opacity:0.313726;"/>
<stop offset="0.222222" style="stop-color:rgb(0%,0%,0%);stop-opacity:0.27451;"/>
<stop offset="1" style="stop-color:rgb(0%,0%,0%);stop-opacity:0;"/>
</radialGradient>
<radialGradient id="radial1" gradientUnits="userSpaceOnUse" cx="450.908936" cy="189.579361" fx="450.908936" fy="189.579361" r="21.166656" gradientTransform="matrix(-0.000000348341,0.156265,0.281277,0.000000203077,-40.755227,-15.054958)">
<stop offset="0" style="stop-color:rgb(0%,0%,0%);stop-opacity:0.313726;"/>
<stop offset="0.222222" style="stop-color:rgb(0%,0%,0%);stop-opacity:0.27451;"/>
<stop offset="1" style="stop-color:rgb(0%,0%,0%);stop-opacity:0;"/>
</radialGradient>
<radialGradient id="radial2" gradientUnits="userSpaceOnUse" cx="450.908936" cy="189.579361" fx="450.908936" fy="189.579361" r="21.166656" gradientTransform="matrix(-0.000000348341,-0.156265,0.281277,-0.000000203077,-40.755227,127.190665)">
<stop offset="0" style="stop-color:rgb(0%,0%,0%);stop-opacity:0.313726;"/>
<stop offset="0.222222" style="stop-color:rgb(0%,0%,0%);stop-opacity:0.27451;"/>
<stop offset="1" style="stop-color:rgb(0%,0%,0%);stop-opacity:0;"/>
</radialGradient>
<radialGradient id="radial3" gradientUnits="userSpaceOnUse" cx="450.908936" cy="189.579361" fx="450.908936" fy="189.579361" r="21.166656" gradientTransform="matrix(0.000000348341,0.156265,-0.281277,0.000000203077,104.261293,-15.054959)">
<stop offset="0" style="stop-color:rgb(0%,0%,0%);stop-opacity:0.313726;"/>
<stop offset="0.222222" style="stop-color:rgb(0%,0%,0%);stop-opacity:0.27451;"/>
<stop offset="1" style="stop-color:rgb(0%,0%,0%);stop-opacity:0;"/>
</radialGradient>
<linearGradient id="linear1" gradientUnits="userSpaceOnUse" x1="169.333328" y1="233.5" x2="169.333328" y2="-168.666656" gradientTransform="matrix(0.125012,0,0,0.125012,0,26.877566)">
<stop offset="0" style="stop-color:rgb(25.882354%,25.882354%,25.882354%);stop-opacity:1;"/>
<stop offset="1" style="stop-color:rgb(38.039216%,38.039216%,38.039216%);stop-opacity:1;"/>
</linearGradient>
<linearGradient id="linear2" gradientUnits="userSpaceOnUse" x1="253.999985" y1="233.5" x2="254" y2="-168.666656" gradientTransform="matrix(0.125012,0,0,0.125012,0,26.877566)">
<stop offset="0" style="stop-color:rgb(14.901961%,77.64706%,85.490197%);stop-opacity:1;"/>
<stop offset="1" style="stop-color:rgb(30.19608%,81.568629%,88.235295%);stop-opacity:1;"/>
</linearGradient>
<linearGradient id="linear3" gradientUnits="userSpaceOnUse" x1="253.999985" y1="233.5" x2="254" y2="-168.666656" gradientTransform="matrix(0.125012,0,0,-0.125012,0,34.984622)">
<stop offset="0" style="stop-color:rgb(69.803923%,92.156863%,94.901961%);stop-opacity:1;"/>
<stop offset="1" style="stop-color:rgb(50.196081%,87.058824%,91.764706%);stop-opacity:1;"/>
</linearGradient>
</defs>
<g id="surface1">
<path style=" stroke:none;fill-rule:nonzero;fill:url(#linear0);" d="M 11.90625 55.871094 L 51.597656 55.871094 L 51.597656 58.8125 L 11.90625 58.8125 Z M 11.90625 55.871094 "/>
<path style=" stroke:none;fill-rule:nonzero;fill:url(#radial0);" d="M 51.597656 56.066406 L 56.890625 56.066406 L 56.890625 53.421875 L 51.597656 53.421875 Z M 51.597656 56.066406 "/>
<path style=" stroke:none;fill-rule:nonzero;fill:url(#radial1);" d="M 11.90625 56.066406 L 6.613281 56.066406 L 6.613281 58.714844 L 11.90625 58.714844 Z M 11.90625 56.066406 "/>
<path style=" stroke:none;fill-rule:nonzero;fill:url(#radial2);" d="M 11.90625 56.066406 L 6.613281 56.066406 L 6.613281 53.421875 L 11.90625 53.421875 Z M 11.90625 56.066406 "/>
<path style=" stroke:none;fill-rule:nonzero;fill:url(#radial3);" d="M 51.597656 56.066406 L 56.890625 56.066406 L 56.890625 58.714844 L 51.597656 58.714844 Z M 51.597656 56.066406 "/>
<path style=" stroke:none;fill-rule:nonzero;fill:url(#linear1);" d="M 9.261719 5.792969 L 54.246094 5.792969 C 55.707031 5.792969 56.890625 6.976562 56.890625 8.4375 L 56.890625 53.421875 C 56.890625 54.882812 55.707031 56.066406 54.246094 56.066406 L 9.261719 56.066406 C 7.800781 56.066406 6.613281 54.882812 6.613281 53.421875 L 6.613281 8.4375 C 6.613281 6.976562 7.800781 5.792969 9.261719 5.792969 Z M 9.261719 5.792969 "/>
<path style=" stroke:none;fill-rule:nonzero;fill:rgb(0%,0%,0%);fill-opacity:0.235294;" d="M 17.269531 24.726562 C 17.089844 25.269531 17.277344 25.882812 17.765625 26.226562 L 25.667969 31.757812 L 30.996094 28.027344 C 31.21875 27.871094 31.480469 27.789062 31.753906 27.789062 L 32.832031 27.789062 L 31.664062 26.964844 C 31.421875 26.980469 31.191406 27.0625 30.996094 27.199219 L 25.667969 30.929688 L 17.765625 25.398438 C 17.523438 25.226562 17.355469 24.988281 17.269531 24.726562 Z M 17.269531 24.726562 "/>
<path style=" stroke:none;fill-rule:nonzero;fill:rgb(90.196079%,90.196079%,90.196079%);fill-opacity:0.392157;" d="M 9.261719 5.792969 C 7.796875 5.792969 6.613281 6.972656 6.613281 8.4375 L 6.613281 8.769531 C 6.613281 7.304688 7.796875 6.121094 9.261719 6.121094 L 54.246094 6.121094 C 55.710938 6.121094 56.890625 7.304688 56.890625 8.769531 L 56.890625 8.4375 C 56.890625 6.972656 55.710938 5.792969 54.246094 5.792969 Z M 9.261719 5.792969 "/>
<path style=" stroke:none;fill-rule:nonzero;fill:rgb(0%,0%,0%);fill-opacity:0.196078;" d="M 9.261719 56.066406 C 7.796875 56.066406 6.613281 54.886719 6.613281 53.421875 L 6.613281 53.089844 C 6.613281 54.558594 7.796875 55.738281 9.261719 55.738281 L 54.246094 55.738281 C 55.710938 55.738281 56.890625 54.558594 56.890625 53.089844 L 56.890625 53.421875 C 56.890625 54.886719 55.710938 56.066406 54.246094 56.066406 Z M 9.261719 56.066406 "/>
<path style="fill:none;stroke-width:3;stroke-linecap:round;stroke-linejoin:miter;stroke:rgb(12.941177%,12.941177%,12.941177%);stroke-opacity:1;stroke-miterlimit:4;" d="M 74.086675 -168.660675 L 433.927312 -168.660675 C 445.613696 -168.660675 455.081542 -159.192829 455.081542 -147.506445 L 455.081542 212.334192 C 455.081542 224.020576 445.613696 233.488421 433.927312 233.488421 L 74.086675 233.488421 C 62.400291 233.488421 52.901198 224.020576 52.901198 212.334192 L 52.901198 -147.506445 C 52.901198 -159.192829 62.400291 -168.660675 74.086675 -168.660675 Z M 74.086675 -168.660675 " transform="matrix(0.125012,0,0,0.125012,0,26.877566)"/>
<path style=" stroke:none;fill-rule:nonzero;fill:url(#linear2);" d="M 31.753906 26.964844 C 31.480469 26.964844 31.21875 27.046875 30.996094 27.203125 L 17.765625 36.464844 C 17.175781 36.875 17.027344 37.679688 17.421875 38.277344 L 20.070312 42.246094 C 20.480469 42.867188 21.324219 43.023438 21.929688 42.59375 L 32.832031 34.898438 L 42.335938 34.898438 C 42.6875 34.898438 43.023438 34.757812 43.269531 34.511719 L 45.917969 31.863281 C 46.433594 31.347656 46.433594 30.511719 45.917969 29.996094 L 43.269531 27.351562 C 43.023438 27.101562 42.6875 26.964844 42.335938 26.964844 Z M 31.753906 26.964844 "/>
<path style=" stroke:none;fill-rule:nonzero;fill:url(#linear3);" d="M 21.183594 19.027344 C 20.753906 19.023438 20.328125 19.226562 20.070312 19.613281 L 17.421875 23.585938 C 17.027344 24.179688 17.175781 24.988281 17.765625 25.398438 L 25.667969 30.929688 L 30.996094 27.203125 C 31.21875 27.046875 31.480469 26.964844 31.753906 26.964844 L 32.832031 26.964844 L 21.929688 19.269531 C 21.703125 19.109375 21.441406 19.03125 21.183594 19.027344 Z M 21.183594 19.027344 "/>
<path style=" stroke:none;fill-rule:nonzero;fill:rgb(100%,100%,100%);fill-opacity:0.392157;" d="M 31.753906 26.964844 C 31.480469 26.964844 31.21875 27.046875 30.996094 27.203125 L 17.765625 36.464844 C 17.300781 36.789062 17.109375 37.355469 17.242188 37.875 C 17.320312 37.582031 17.496094 37.3125 17.765625 37.121094 L 30.996094 27.859375 C 31.21875 27.707031 31.480469 27.621094 31.753906 27.621094 L 42.335938 27.621094 C 42.6875 27.621094 43.023438 27.761719 43.269531 28.007812 L 45.917969 30.65625 C 46.089844 30.828125 46.207031 31.039062 46.261719 31.261719 C 46.375 30.824219 46.261719 30.339844 45.917969 29.996094 L 43.269531 27.351562 C 43.023438 27.101562 42.6875 26.964844 42.335938 26.964844 Z M 31.753906 26.964844 "/>
<path style=" stroke:none;fill-rule:nonzero;fill:rgb(0%,0%,0%);fill-opacity:0.235294;" d="M 46.207031 31.429688 C 46.144531 31.585938 46.046875 31.738281 45.917969 31.867188 L 43.269531 34.511719 C 43.023438 34.761719 42.6875 34.898438 42.335938 34.898438 L 32.832031 34.898438 L 21.929688 42.597656 C 21.324219 43.023438 20.480469 42.867188 20.070312 42.25 L 17.421875 38.28125 C 17.371094 38.203125 17.332031 38.125 17.296875 38.042969 C 17.140625 38.433594 17.171875 38.894531 17.421875 39.273438 L 20.070312 43.242188 C 20.480469 43.859375 21.324219 44.015625 21.929688 43.589844 L 32.832031 35.890625 L 42.335938 35.890625 C 42.6875 35.890625 43.023438 35.753906 43.269531 35.503906 L 45.917969 32.859375 C 46.304688 32.472656 46.402344 31.90625 46.207031 31.429688 Z M 46.207031 31.429688 "/>
<path style=" stroke:none;fill-rule:nonzero;fill:rgb(100%,100%,100%);fill-opacity:0.392157;" d="M 21.183594 19.027344 C 20.753906 19.023438 20.328125 19.226562 20.070312 19.613281 L 17.421875 23.585938 C 17.207031 23.910156 17.152344 24.292969 17.242188 24.644531 C 17.28125 24.503906 17.339844 24.367188 17.421875 24.242188 L 20.070312 20.273438 C 20.328125 19.886719 20.753906 19.679688 21.183594 19.683594 C 21.441406 19.6875 21.703125 19.765625 21.929688 19.925781 L 31.898438 26.964844 L 32.832031 26.964844 L 21.929688 19.269531 C 21.703125 19.109375 21.441406 19.03125 21.183594 19.027344 Z M 21.183594 19.027344 "/>
<path style="fill:none;stroke-width:3;stroke-linecap:round;stroke-linejoin:round;stroke:rgb(12.941177%,12.941177%,12.941177%);stroke-opacity:1;stroke-miterlimit:4;" d="M 254.006994 0.698152 C 251.819702 0.698152 249.726152 1.354339 247.945072 2.60422 L 142.111429 76.690895 C 137.39313 79.971832 136.205743 86.408717 139.361692 91.18951 L 160.547169 122.936479 C 163.828105 127.904754 170.577461 129.154635 175.420748 125.717463 L 262.63117 64.160841 L 338.65516 64.160841 C 341.467391 64.160841 344.154635 63.035949 346.123197 61.067387 L 367.308674 39.88191 C 371.43328 35.757304 371.43328 29.070442 367.308674 24.945836 L 346.123197 3.791606 C 344.154635 1.791797 341.467391 0.698152 338.65516 0.698152 Z M 254.006994 0.698152 " transform="matrix(0.125012,0,0,0.125012,0,26.877566)"/>
<path style="fill:none;stroke-width:11.338583;stroke-linecap:round;stroke-linejoin:round;stroke:rgb(12.941177%,12.941177%,12.941177%);stroke-opacity:1;stroke-miterlimit:4;" d="M 640.450685 575.260056 C 627.459799 575.141957 614.587011 581.283103 606.79248 592.974901 L 526.721382 713.081548 C 514.793386 731.032591 519.281147 755.479076 537.114091 767.879467 L 776.028296 935.107601 L 937.115284 822.441189 C 943.846925 817.71723 951.759555 815.237152 960.026483 815.237152 L 992.621797 815.237152 L 663.007587 582.582192 C 656.157847 577.740135 648.245216 575.378155 640.450685 575.260056 Z M 640.450685 575.260056 " transform="matrix(0.0330761,0,0,0.0330761,0,0)"/>
</g>
</svg>
